img/insta.svg

<svg width="32" height="31" viewBox="0 0 32 31" fill="none" xmlns="http://www.w3.org/2000/svg">
<path fill-rule="evenodd" clip-rule="evenodd" d="M30.5026 5.34545C30.0985 4.32727 29.5657 3.46364 28.6932 2.6C27.8206 1.73636 26.9481 1.20909 25.9194 0.809091C24.9274 0.427273 23.7885 0.172727 22.1169 0.0909091C20.4453 0.0181818 19.9126 0 15.66 0C11.4075 0 10.8748 0.0181818 9.20313 0.0909091C7.54069 0.172727 6.40178 0.427273 5.40064 0.818182C4.37195 1.21818 3.49939 1.74545 2.62684 2.60909C1.75429 3.47273 1.22157 4.33636 0.817444 5.35455C0.431684 6.33636 0.17451 7.46364 0.0918476 9.10909C0.0183695 10.7636 0 11.2909 0 15.5C0 19.7091 0.0183695 20.2364 0.0918476 21.8909C0.17451 23.5455 0.431684 24.6727 0.826628 25.6545C1.23076 26.6727 1.76347 27.5364 2.63603 28.4C3.50858 29.2636 4.38113 29.7909 5.40982 30.1909C6.40178 30.5727 7.54069 30.8364 9.21231 30.9091C10.8839 30.9818 11.4167 31 15.6692 31C19.9217 31 20.4545 30.9818 22.1261 30.9091C23.7885 30.8364 24.9274 30.5727 25.9286 30.1909C26.9573 29.7909 27.8298 29.2636 28.7024 28.4C29.5749 27.5364 30.1076 26.6727 30.5118 25.6545C30.8975 24.6727 31.1639 23.5455 31.2374 21.8909C31.3108 20.2364 31.3292 19.7091 31.3292 15.5C31.3292 11.2909 31.3108 10.7636 31.2374 9.10909C31.1547 7.46364 30.8883 6.33636 30.5026 5.34545ZM15.66 23.4636C11.2146 23.4636 7.61417 19.9 7.61417 15.5C7.61417 11.1 11.2146 7.53636 15.66 7.53636C20.1054 7.53636 23.7059 11.1 23.7059 15.5C23.7059 19.9 20.1054 23.4636 15.66 23.4636ZM24.0273 9.09091C22.9895 9.09091 22.1445 8.25455 22.1445 7.22727C22.1445 6.2 22.9895 5.36364 24.0273 5.36364C25.0652 5.36364 25.9102 6.2 25.9102 7.22727C25.901 8.25455 25.0652 9.09091 24.0273 9.09091ZM20.8861 15.5C20.8861 18.3545 18.5532 20.6636 15.6692 20.6636C12.7852 20.6636 10.4523 18.3545 10.4523 15.5C10.4523 12.6455 12.7852 10.3364 15.6692 10.3364C18.544 10.3364 20.8861 12.6455 20.8861 15.5Z" fill="#B1B1B1"/>
</svg>

<svg xmlns="http://www.w3.org/2000/svg" width="32" height="31" fill="none"><path fill="#B1B1B1" fill-rule="evenodd" d="M30.503 5.345a7.652 7.652 0 0 0-1.81-2.745A7.747 7.747 0 0 0 25.92.81c-.992-.383-2.13-.637-3.802-.72C20.445.019 19.913 0 15.66 0c-4.252 0-4.785.018-6.457.09-1.662.083-2.801.337-3.802.728A7.746 7.746 0 0 0 2.627 2.61a7.651 7.651 0 0 0-1.81 2.746C.432 6.336.175 7.464.092 9.109.018 10.764 0 11.291 0 15.5c0 4.21.018 4.736.092 6.39.083 1.655.34 2.783.735 3.764A7.651 7.651 0 0 0 2.636 28.4a7.747 7.747 0 0 0 2.774 1.79c.992.383 2.13.646 3.802.72 1.672.072 2.205.09 6.457.09 4.253 0 4.785-.018 6.457-.09 1.662-.074 2.801-.337 3.803-.72a7.747 7.747 0 0 0 2.773-1.79 7.653 7.653 0 0 0 1.81-2.745c.386-.982.652-2.11.725-3.764.074-1.655.092-2.182.092-6.391 0-4.21-.018-4.736-.092-6.39-.082-1.646-.349-2.774-.734-3.765ZM15.66 23.464c-4.445 0-8.046-3.564-8.046-7.964s3.6-7.964 8.046-7.964c4.445 0 8.046 3.564 8.046 7.964s-3.6 7.964-8.046 7.964ZM24.027 9.09a1.876 1.876 0 0 1-1.883-1.864c0-1.027.846-1.863 1.883-1.863 1.038 0 1.883.836 1.883 1.863a1.882 1.882 0 0 1-1.883 1.864Zm-3.14 6.409c0 2.855-2.334 5.164-5.218 5.164s-5.217-2.31-5.217-5.164c0-2.854 2.333-5.164 5.217-5.164 2.875 0 5.217 2.31 5.217 5.164Z" clip-rule="evenodd"/></svg>
